repeat 4 [fd 50 rt 90]
repeat 8 [fd 50 rt 45]
repeat 6 [fd 50 rt 60]
repeat 3 [fd 50 rt 120]
repeat 3 [fd 100 rt 120]
repeat 5 [fd 100 rt 72]
repeat 36 [fd 10 rt 10]
repeat 4 [fd 100 rt 90]
repeat 20 [fd 10]
repeat 4 [fd 100 rt 90]
